src/raw/stairs/icon_24.svg

<svg width="24" height="24" viewBox="0 0 24 24" fill="none" xmlns="http://www.w3.org/2000/svg">
<path d="M23.2503 12.751L12.7773 23.25" stroke="#71717A" stroke-width="1.5" stroke-linecap="round" stroke-linejoin="round"/>
<path d="M17.25 12.751H23.25V18.6448" stroke="#71717A" stroke-width="1.5" stroke-linecap="round" stroke-linejoin="round"/>
<path d="M0.75 23.25V17.25H6.75V11.25H12.75V5.25001H18.75V0.889648" stroke="#71717A" stroke-width="1.5" stroke-linecap="round" stroke-linejoin="round"/>
</svg>

<svg xmlns="http://www.w3.org/2000/svg" width="24" height="24" fill="none" viewBox="0 0 24 24">
  <path stroke="#3F3F46" stroke-linecap="round" stroke-linejoin="round" stroke-width="1.5"
    d="M23.25 12.751 12.777 23.25M17.25 12.751h6v5.943M.75 23.25v-6h6v-6h6v-6h6V.784" />
</svg>
